X:133
T:Bonsadalians. JJo8.133, The
%%VWML:JohnsonVol8-2184-p67-0
F:http://www.vwml.org/record/JohnsonVol8/2184/p67
Z:Transcribed by Simon Furey and Lewis Jones
Z:vmp.Simon Wilson 2013 www.village-music-project.org.uk
Z:Dance added by John Chambers 2017
M:2/4
L:1/8
%Q:1/2=100
K:G
|:\
G2Bd | G2Bd | ge dc | BG dB |\
G2Bd | G2Bd | ged^c | d2D2 :|
|:\
g2gb | g2gb | edef | gdBG |\
g2gb | g2gb | edef | g2G2 :|
W: The 1st and 2d Cu. hands across quite
W:round .| the sam back again ..| Gallop
W:down and up and cast off .| Lead thro' the
W:3d Cu. and cast up ..| Foot it contrary
W:Corners ..| Lead out Sides ..|
W:
T:Bristol Wells. JJo8.134
B:J.Johnson Choice Collection Vol 8 1758
Z:vmp.Simon Wilson 2013 www.village-music-project.org.uk
Z:Dance added by John Chambers 2017
M:6/8
L:1/8
%Q:3/8=120
K:G
|:\
g2b afd | (e/f/g)e dBG | c2e dBG | FAAA3 |\
g2b afd | (e/f/g)e dBG | (c/d/e)c (B/c/d)B | DGFG3 :|
|:\
dBG Bdg | dBG Bdg | bgd bgd | eAAA3 |\
dBG Bdg | dBG Bdg | dgd (B/c/d)B | DGFG3 :|
W: First Man foot it to the 2d Wo. and
W:turn .| 1st Wo. do the same ..| lead down
W:thro' the 3d Cu. and cast up one .|
W:Right and Left at top ..|
W:
